X: 28256
T: Mrs. Judge
R: hornpipe
M: 4/4
K: Aminor
AG|E2 AA A2 c2|B>c BA G2 e2|e<d c<B d<c B<A|~G4 E2~E2|
A2 B2 c2 d2|e>f ed c2 a2|ab c'2 e2 c'2|~b4 a2 ~a2|
ag e2 ~e2 a2|g>a ge c2 e2|dcBc d2 c2|~B4 A2 G2|
e2 c2 f2 d2|g2 e2 a2 e2|f<e d<c e<d c<B|A2 AG A4|

